!!!!SEGMENT: pl-kk--kk-i-10--002-005_pekiel-bartlomiej--missa-paschalis-agnus-dei.krn
!!!cenid: 16xx:1189
!!!COM: Pękiel, Bartłomiej
!!!COM-rismID:
!!!CDT: <1633-~1670
!!!CNT: Polish
!!!OPR: Missa Paschalis
!!!OTL: Agnus Dei
!!!OMV: 005
!!!PDT:
!!!AGN: Sacred; Mass
!!!SMS-siglum: PL-Kk
!!!SMS-shelfmark: Kk.I.10
!!!SMS-shelfwork: 002-005 M
!!!SMS-variant:
!!!SMS-altvar:
!!!NIFC-rismSourceID: 1001151830
!!!NIFC-islandoraID: pl-kk:2434
!!!URL-pdf-islandora: https://repozytorium.nifc.pl/islandora/object/pl-kk%3A2434/datastream/PDF/view
!!!URL-scan: https://polish.musicsources.pl/pl/lokalizacje/galeria/rekopisy/5737 @EN{Scan on Polish Music Herritage in Open Access Website} @PL{Skany w portalu Dziedzictwo Muzyki Polskiej w otwartym dostępie}
!!!ONB-nifc: UWAGA: części Mszy: 1. Kyrie, 2. Et in terra, 3. Patrem, 4. Sanctus, 5. Agnus Dei. T1mus (skan 0007-0010), T2dus (0057-0060), B (0106-0109)
!!!AIN: 1 bass 2 tenor
!!!key:
**kern	**text	**kern	**text	**kern	**text
*part3	*part3	*part2	*part2	*part1	*part1
*staff3	*staff3	*staff2	*staff2	*staff1	*staff1
*Ibass	*	*Itenor	*	*Itenor	*
*I"[Bassus]	*	*I"Tenor Secundus.	*	*I"Tenor Imus	*
*I'B	*	*I'T 2	*	*I'T 1	*
*clefF4	*	*clefC4	*	*clefC4	*
*k[]	*	*k[]	*	*k[]	*
*D:	*	*D:	*	*D:	*
*M2/1	*	*M2/1	*	*M2/1	*
*met(C|)	*	*met(C|)	*	*met(C|)	*
=1-	=1-	=1-	=1-	=1-	=1-
*2\right	*	*2\right	*	*2\right	*
!LO:TX:t=P:problem=all\right&colon; global	!	!LO:TX:t=P:problem=all\right&colon; global	!	!LO:TX:t=P:problem=all\right&colon; global	!
!LO:TX:t=P:problem=w źródle inicjał A na początku pięciolinii	!	!	!	!	!
!	!	!LO:TX:t=P:problem=w źródle inicjał A na początku pięciolinii	!	!LO:TX:t=P:problem=w źródle inicjał A na początku pięciolinii	!
!	!	!	!	!LO:TX:a:B:t=Prestissimo	!
1.D	A-	1.A	A-	1.d	Ag-
!LO:TX:t=P:problem=kreska pseudotaktowa	!	!LO:TX:t=P:problem=kreska pseudotaktowa	!	!	!
2D/	-gnus	2A	-gnus	2d\	-nus
=2	=2	=2-	=2	=2-	=2-
1GG	De-	1B-X	De-	1d	De-
4.D/	-i	2A/	-i	4d\	-i
.	.	.	.	4d\	qui
8D/	qui	.	.	.	.
!LO:TX:t=P:problem=kreska pseudotaktowa	!	!LO:TX:t=P:problem=kreska pseudotaktowa	!	!	!
2A\	tol-	2r	.	8c\L	tol-
.	.	.	.	8B\	.
.	.	.	.	8c\	.
.	.	.	.	8d\J	.
=3	=3	=3	=3	=3-	=3-
4E\	-lis	0r	.	2e\	.
4E\	pec-	.	.	.	.
4.G\	-ca-	.	.	4.B\	-lis
!LO:TX:t=P:problem=kreska pseudotaktowa	!	!	!	!	!
8G\	-ta	.	.	8c\	.
(>2F\	mu(n)-	.	.	4.d\	pec-
.	.	.	.	8d\	-ca-
!LO:TX:t=P:problem=kreska pseudotaktowa	!	!	!	!	!
2E\)	-di	.	.	4d\	-ta
!	!	!	!	!LO:TX:a:t=P:problem=# above	!
.	.	.	.	4c#Xi\	mun-
=4	=4	=4-	=4-	=4-	=4-
4D/	mi-	2A\	mi-	2d\	-di
8.D/	-ſe-	.	.	.	.
16C/	-re-	.	.	.	.
!	!	!LO:TX:t=P:problem=kreska pseudotaktowa	!	!	!
(>8BBn/L	.	2B\	-ſe-	2r	.
8AA/J)	.	.	.	.	.
8.GG/	.	.	.	.	.
*custos:AA	*	*	*	*	*
!LO:TX:t=P:problem=kreska pseudotaktowa	!	!	!	!	!
16GG/	.	.	.	.	.
!LO:LB:g=original	!	!	!	!	!
8AA/L	.	2c\	-re-	4.A/	mi-
8BB/	.	.	.	.	.
8C/	.	.	.	.	.
8AA/J	.	.	.	8A/	-ſe-
!	!	!LO:TX:t=P:problem=kreska pseudotaktowa	!	!	!
8E\L	.	2B\	-re	4.B\	-re-
8F\	.	.	.	.	.
8G\	.	.	.	.	.
*	*	*	*	*custos:c	*
!LO:TX:t=P:problem=kreska pseudotaktowa	!	!	!	!	!
8E\J	.	.	.	8B\	-re
!	!	!	!	!LO:PB:g=original	!
=5	=5	=5	=5	=5-	=5-
4A\	.	2.A/	no-	2cny\	no-
4C/	-re	.	.	.	.
4D/	no-	.	.	2B\	.
!LO:TX:t=P:problem=kreska pseudotaktowa	!	!	!	!	!
!	!	!LO:TX:b:t=P:problem=# below	!	!	!
4E\	.	4G#X/	.	.	.
!	!	!LO:TX:t=P:problem=kreska pseudotaktowa	!	!	!
!LO:TX:t=P:problem=w źródle kreska oddechu na różnych liniach [rozdzielacz słów]	!	!	!	!	!
4AA,</	-bis	1A	-bis	1c#X	-bis
2A\	mi-	.	.	.	.
!LO:TX:t=P:problem=kreska pseudotaktowa	!	!	!	!	!
4G\	-ſe-	.	.	.	.
=6	=6	=6	=6	=6-	=6-
*	*	*	*ij	*	*
8F#X\L	-re-	2d\	mi-	4.A/	mi-
8D\	.	.	.	.	.
8E\	.	.	.	.	.
8F#\J	.	.	.	8A/	-ſe-
4G\	.	2B\	-ſe-	2G/	-re-
!LO:TX:t=P:problem=kreska pseudotaktowa	!	!	!	!	!
4GG/	-re	.	.	.	.
4.C/	mi-	2c\	-re-	4G/	-re
.	.	.	.	4.cny\	no-
8C/	-ſe-	.	.	.	.
!	!	!LO:TX:t=P:problem=kreska pseudotaktowa	!	!	!
8FF#y/L	-re-	2A/	-re	.	.
8GG/	-re	.	.	8B-X\L	.
8AA/	.	.	.	8c\	.
!LO:TX:t=P:problem=kreska pseudotaktowa	!	!	!	!	!
8BB-X/J	.	.	.	8d\J	.
=7	=7	=7	=7	=7-	=7-
8C/L	.	2G/	no-	8e\L	.
8D/	.	.	.	8d\	.
8E/J	.	.	.	8c\	.
8C/	.	.	.	8B-\J	.
*custos:AA	*	*	*	*	*
!LO:TX:t=P:problem=kreska pseudotaktowa	!	!	!	!	!
2D/	no-	2F/	.	(>8A/L	.
.	.	.	.	8G/J)	.
.	.	.	.	4A/	.
*	*	*custos:A	*	*	*
!LO:LB:g=original	!	!	!	!	!
!LO:TX:t=P:problem=kreska pseudotaktowa	!	!	!	!	!
1AA	-bis	1E	-bis	4A/	-bis
.	.	.	.	8A/	mi-
.	.	.	.	8Bny\	-ſe-
!	!	!	!	!LO:TX:a:t=P:problem=# above	!
.	.	.	.	8c#Xi\L	-re-
.	.	.	.	8A\	.
.	.	.	.	8B\	.
.	.	.	.	8c#\J	.
*	*	*	*Xij	*	*
!	!	!LO:LB:g=original	!	!	!
=8	=8	=8-	=8-	=8-	=8-
4.D\	mi-	2r	.	8d\L	.
.	.	.	.	8A\J	.
.	.	.	.	4.d\	.
8D\	-ſe-	.	.	.	.
!LO:TX:t=P:problem=kreska pseudotaktowa	!	!	!	!	!
2A\	-re-	4.A/	mi-	.	.
.	.	.	.	16c#X\LL	.
.	.	.	.	16B\JJ	.
*	*	*	*	*custos:G	*
.	.	.	.	4c#\	.
!	!	!LO:TX:t=P:problem=kreska pseudotaktowa	!	!	!
.	.	8A/	-ſe-	.	.
!	!	!	!	!LO:LB:g=original	!
2E\	-re	2e\	-re-	4G/	-re
.	.	.	.	4.B\	no-
!LO:TX:t=P:problem=kreska pseudotaktowa	!	!LO:TX:t=P:problem=kreska pseudotaktowa	!	!	!
2G\	no-	2B\	-re	.	.
.	.	.	.	8cny\	.
.	.	.	.	8d\L	.
.	.	.	.	8e\J	.
=9	=9	=9	=9	=9-	=9-
2F\	.	2.d\	no-	8f\L	.
.	.	.	.	8e\J	.
.	.	.	.	8.d\	.
.	.	.	.	16d\	.
4E\	.	.	.	2e\	.
!LO:TX:t=P:problem=kreska pseudotaktowa	!	!LO:TX:t=P:problem=kreska pseudotaktowa	!	!	!
4AA/	.	4c\	.	.	.
!LO:TX:t=P:problem=kreska pseudotaktowa	!	!	!	!	!
1E	-bis	4B\	.	4e\	-bis
.	.	2A/	.	4.e\	.
.	.	.	.	8d\	mi-
!	!	!LO:TX:t=P:problem=kreska pseudotaktowa	!	!	!
!	!	!LO:TX:b:t=P:problem=# below	!	!	!
.	.	4G#X/	.	8c\L	-ſe-
.	.	.	.	8B\J	.
=10	=10	=10	=10	=10-	=10-
4AA/	.	2.A/	-bis.	4A\	-re-
8A\	mi-	.	.	2d\	-re
8G\	-ſe-	.	.	.	.
8F\L	-re-	.	.	.	.
8E\	.	.	.	.	.
8.D\J	-re	4f\	.	4c\	.
!LO:TX:t=P:problem=kreska pseudotaktowa	!	!	!	!	!
16D\	no-	.	.	.	.
1E	-bis	1e	.	2B\	no-
!	!	!	!	!LO:TX:a:t=P:problem=w źródle nuta 2c#Xl jako terminal long połaczone z nutą 0c#yy	!
!	!	!	!	!LO:TX:a:t=P:problem=terminal long	!
.	.	.	.	2c#Xl\	-bis.
=11-	=11-	=11-	=11-	=11-	=11-
!	!	!LO:TX:t=P:problem=podwójna kreska pseudotaktowa	!	!	!
!	!	!LO:N:vis=1	!	!	!
!LO:TX:a:t=P:problem=terminal long	!	!	!	!	!
0AAl	.	0e;<	.	0c#yy\	.
!!LO:LB:g=original
=12-	=12-	=12||	=12||	=12-	=12-
*M2/1	*	*M2/1	*	*M2/1	*
*met(C|)	*	*met(C|)	*	*met(C|)	*
!LO:TX:t=P:problem=w źródle inicjał A na początku pięciolinii	!	!	!	!	!
!	!	!LO:TX:t=P:problem=w źródle inicjał A na początku pięciolinii	!	!LO:TX:t=P:problem=w źródle inicjał A na początku pięciolinii	!
!LO:TX:a:t=P:problem=w źródle poprawki skryptora i takt przeniesiony o oktawę w górę	!	!	!	!	!
1.A	A-	1.c#X	A-	1.e	A-
!LO:TX:t=P:problem=kreska pseudotaktowa	!	!	!	!	!
2F#X/	-gnus	2d\	-gnus	2d\	-gnus
=13	=13	=13-	=13-	=13-	=13-
!LO:TX:t=P:problem=kreska pseudotaktowa	!	!LO:TX:t=P:problem=kreska pseudotaktowa	!	!	!
1GG	De-	1B-X	De-	1d	De-
2D/	-i	2A/	-i	2d\	-i
1D\	Ag-	1A\	Ag-	1d\	qui
=14-	=14-	=14-	=14-	=14-	=14-
.	.	.	.	.	.
!LO:TX:t=P:problem=kreska pseudotaktowa	!	!	!	!	!
2C/	-nus	4cny\	-nus	2e\	tol-
.	.	2c\	.	.	.
1E	De-	.	.	1e	-lis
.	.	8Bny\L	.	.	.
.	.	8A\J	.	.	.
!	!	!LO:TX:t=P:problem=kreska pseudotaktowa	!	!	!
.	.	2B\	De-	.	.
=15-	=15-	=15	=15	=15-	=15-
2.AA/	-i	2c-X\	-i.	4e\	pec-
.	.	.	.	4A/	-ca-
!	!	!LO:TX:t=P:problem=kreska pseudotaktowa	!	!	!
.	.	2r	.	2c\	-ta
!LO:TX:t=P:problem=kreska pseudotaktowa	!	!	!	!	!
4AA/	qui	.	.	.	.
2E\	tol-	2E/	qui	4.B\	.
.	.	.	.	8B\	.
4BB/	-lis	4B\	tol-	2.d\	mun-
!LO:TX:t=P:problem=kreska pseudotaktowa	!	!	!	!	!
4BB/	pec-	8B\	-lis	.	.
!	!	!LO:TX:t=P:problem=kreska pseudotaktowa	!	!	!
.	.	8B\	pec-	.	.
=16	=16	=16	=16	=16-	=16-
2D/	-ca-	8F#X/L	-ca-	.	.
.	.	8E/	.	.	.
.	.	8F#/	.	4A/	.
*	*	*custos:A	*	*	*
.	.	8G/J	.	.	.
!	!	!LO:PB:g=original	!	!	!
!LO:TX:t=P:problem=kreska pseudotaktowa	!	!	!	!	!
2C/	-ta	8A/	.	4.c\	.
.	.	8E/	-ta	.	.
.	.	2A/	mun-	.	.
.	.	.	.	16B\LL	.
.	.	.	.	16A\JJ	.
2BB/	mun-	.	.	2B\	.
.	.	4G#X/	.	.	.
*custos:A	*	*	*	*custos:c	*
2AA/	-di	2A/	-di	2E/	-di
!LO:LB:g=original	!	!	!	!LO:LB:g=original	!
=17-	=17-	=17-	=17-	=17-	=17-
*M3/1	*	*M3/1	*	*M3/1	*
!LO:TX:a:t=P:problem=w źródle pomyłka skryptora i metrum zapisane jako 3/2	!	!	!	!	!
1A	do-	1A	Do-	1c#X	do-
!LO:TX:t=P:problem=kreska pseudotaktowa	!	!LO:TX:t=P:problem=kreska pseudotaktowa	!	!	!
2F#X\	-na	2A/	.	2d#X\	-na
!	!	!LO:TX:t=P:problem=kreska pseudotaktowa	!	!	!
1E	no-	1.B	-na	1e	no-
!LO:TX:t=P:problem=kreska pseudotaktowa	!	!	!	!	!
2BB/	-bis	.	.	2d-X\	-bis
=18	=18	=18	=18	=18-	=18-
2C/	pa-	2G/	no-	(<1cny	pa-
2AA/	.	2A/	-bis	.	.
!LO:TX:t=P:problem=kreska pseudotaktowa	!	!LO:TX:t=P:problem=kreska pseudotaktowa	!	!	!
2BB/	.	2F#X/	pa-	2B\)	.
!LO:TX:t=P:problem=kreska pseudotaktowa	!	!LO:TX:t=P:problem=kreska pseudotaktowa	!	!	!
1.E	-cem	1.G#X	-cem	2B\	-cem
.	.	.	.	2e\	do-
.	.	.	.	2B\	-na
=19	=19	=19	=19	=19-	=19-
*	*	*	*ij	*	*
2.AA/	do-	1A	do-	1c#X	.
4AA/	-na	.	.	.	.
!	!	!LO:TX:t=P:problem=kreska pseudotaktowa	!	!	!
4.D/	no-	2A/	-na	2dny\	no-
!LO:TX:t=P:problem=kreska pseudotaktowa	!	!	!	!	!
8D/	-bis	.	.	.	.
*	*ij	*	*	*	*
2.GG/	do-	1B	no-	1d	-bis
4GG/	-na	.	.	.	.
!LO:TX:t=P:problem=kreska pseudotaktowa	!	!	!	!	!
2C/	no-	1G/	.	2cny\	.
=20	=20	=20-	=20-	=20-	=20-
2GG/	-bis	.	.	2B\	pa-
*	*Xij	*	*	*	*
*	*	*custos:E	*	*	*
!	!	!LO:TX:t=P:problem=kreska pseudotaktowa	!	!	!
!LO:TX:t=P:problem=kreska pseudotaktowa	!	!	!	!	!
1AA	pa-	1E	-bis	1A	-cem
*custos:AA	*	*	*	*	*
!	!	!LO:LB:g=original	!	!	!
!LO:TX:t=P:problem=kreska pseudotaktowa	!	!	!	!	!
1.E	-cem	2E/	pa-	1.G#X	.
.	.	4.B\	.	.	.
.	.	8E/	-cem	.	.
*	*	*	*Xij	*	*
.	.	4e\	no-	.	.
!	!	!LO:TX:t=P:problem=kreska pseudotaktowa	!	!	!
.	.	4d\	.	.	.
!LO:LB:g=original	!	!	!	!	!
=21	=21	=21	=21	=21-	=21-
1AA	do-	4c\	.	2.A/	do-
.	.	4B\	.	.	.
.	.	2A/	.	.	.
.	.	.	.	4A/	-na
*	*	*	*	*custos:c	*
!LO:TX:t=P:problem=kreska pseudotaktowa	!	!	!	!	!
2E\	-na	4G/	-bis	(>2.B\	no-
!	!	!LO:TX:t=P:problem=kreska pseudotaktowa	!	!	!
.	.	4A/	.	.	.
1BB	no	2.B\	pa-	.	.
!	!	!	!	!LO:LB:g=original	!
.	.	.	.	4c\)	.
.	.	.	.	4d\	.
.	.	8A/L	.	4e\	.
.	.	8G/J	.	.	.
!LO:TX:t=P:problem=kreska pseudotaktowa	!	!	!	!	!
2D/	.	4F#X/	.	2f#X\	.
!	!	!LO:TX:t=P:problem=kreska pseudotaktowa	!	!	!
.	.	4G/	.	.	.
=22	=22	=22	=22	=22-	=22-
2.C/	pa-	2A/	-cem	2e\	-bis
!	!	!LO:TX:t=P:problem=kreska pseudotaktowa	!	!	!
.	.	1e	do-	2r	.
*col	*	*	*	*	*
4D/	.	.	.	.	.
1E	.	.	.	4.E/	do-
.	.	.	.	8E/	-na
.	.	2B\	-na	1B	.
!	!	!LO:TX:t=P:problem=kreska pseudotaktowa	!	!	!
*Xcol	*	*	*	*	*
2BB/	-cam	1d	no-	.	.
!LO:TX:t=P:problem=kreska pseudotaktowa	!	!	!	!	!
2D/	.	.	.	2F#X/	no-
=23	=23	=23	=23	=23-	=23-
4AA/	pa-	1c	-bis	1A	-bis
4BB/	.	.	.	.	.
4C/	.	.	.	.	.
4D/	.	.	.	.	.
!LO:TX:t=P:problem=kreska pseudotaktowa	!	!	!	!	!
2E\	.	2B\	pa-	2G#X/	pa-
2F\	.	1A	.	2A/	-cem
*	*	*	*	*	*ij
2D/	.	.	.	2d\	pa-
*	*	*custos:A	*	*	*
!	!	!LO:TX:t=P:problem=kreska pseudotaktowa	!	!	!
2E\	.	2G#X/	.	2B\	-cem
*	*	*	*	*	*Xij
!	!	!LO:LB:g=original	!	!	!
=24-	=24-	=24	=24	=24-	=24-
*M2/1	*	*M2/1	*	*M2/1	*
*met(C|)	*	*met(C|)	*	*met(C|)	*
!	!	!LO:TX:t=P:problem=kreska pseudotaktowa	!	!	!
!	!	!	!	!LO:TX:a:t=P:problem=# above	!
1AA	-cem	1A	-cem	1c#Xi	Do-
2.FF#X/	Do-	2.A/	do-	2.d\	.
*custos:GG	*	*	*	*	*
!LO:TX:t=P:problem=kreska pseudotaktowa	!	!	!	!	!
!	!	!LO:TX:t=P:problem=kreska pseudotaktowa	!	!	!
4FF#/	-na	4A/	-na	4c#\	-na
!LO:LB:g=original	!	!	!	!	!
=25	=25	=25	=25	=25-	=25-
2GG/	no-	4G/	no-	4B-X\	.
.	.	4A/	-bis	4A/	no-
!LO:TX:t=P:problem=kreska pseudotaktowa	!	!	!	!	!
2GG/	-bis	4.B-X\	pa-	1Gny	-bis
!	!	!LO:TX:t=P:problem=kreska pseudotaktowa	!	!	!
.	.	8B-\	.	.	.
!LO:TX:t=P:problem=kreska pseudotaktowa	!	!	!	!	!
0AA	pa-	0A	-cem	.	.
.	.	.	.	2Fny/	.
=26-	=26-	=26-	=26-	=26-	=26-
.	.	.	.	1E	pa-
!LO:TX:a:Bi:t=A. M D G	!	!LO:TX:a:Bi:t=A.M.D.G.	!	!	!
!LO:TX:b:Bi:t=L.D.V. [podpis]	!	!LO:TX:b:Bi:t=L.D.V. [podpis]	!	!LO:TX:b:Bi:t=L.D.V. [podpis]	!
0Dl	-cem.	0A;<	.	0F#Xl;>	-cem
==	==	==	==	==	==
*-	*-	*-	*-	*-	*-
!!!system-decoration: [(s1,s2,s3)]
!!!RDF**kern: > = above
!!!RDF**kern: < = below
!!!RDF**kern: | = vertical stroke
!!!RDF**kern: N = linked
!!!RDF**kern: i = editorial accidental
!!!RDF**kern: l = terminal long
!!!EED: Wojciech Jakubiak-Danek
!!!EEV: 2021-07-07
!!!ENC: Andrzej Gręziak
!!!END: 2021-06-23
